lib/logo_tmp/nrk-logo-nrk-klassisk.svg

<svg width="100" height="24" viewBox="0 0 100 24" fill="none" xmlns="http://www.w3.org/2000/svg">
<path d="M6.10352e-05 18.0004V6.00146H3.93725V18.0004H6.10352e-05ZM9.29387 7.91115L11.5581 18.0004H7.24923L4.54555 6.00146H6.96224C7.51641 5.99426 8.05412 6.18961 8.47456 6.55076C8.89568 6.89675 9.18501 7.37706 9.29387 7.91115ZM12.1496 18.0004V6.00146H16.0868V18.0004H12.1496ZM19.0605 10.5645C18.6363 10.5686 18.2188 10.4576 17.8526 10.2433C17.4913 10.0345 17.1912 9.73433 16.9823 9.37296C16.7678 9.0067 16.6568 8.58913 16.661 8.16468C16.6562 7.74283 16.7673 7.32775 16.9823 6.96479C17.1934 6.60736 17.4932 6.31046 17.8526 6.10289C18.2189 5.88887 18.6363 5.77788 19.0605 5.78175C19.4823 5.77721 19.8972 5.8883 20.2603 6.10289C20.6161 6.31228 20.9127 6.60893 21.1221 6.96479C21.3369 7.32785 21.448 7.74286 21.4434 8.16468C21.4473 8.58909 21.3363 9.00659 21.1221 9.37296C20.9149 9.73274 20.618 10.0326 20.2603 10.2433C19.8972 10.4583 19.4819 10.5695 19.06 10.5645H19.0605ZM22.0517 18.0004V6.00146H25.9892V18.0004H22.0517ZM30.9738 12.5586C30.9849 12.5702 31.0693 12.7082 31.2272 12.9726C31.3851 13.237 31.5907 13.5751 31.844 13.9867C32.0975 14.3981 32.3649 14.8346 32.6464 15.2964C32.9278 15.7581 33.1927 16.1947 33.4409 16.6061C33.6882 17.0176 33.9698 17.4823 34.2858 18.0004H29.9599C29.6893 17.561 29.4442 17.1638 29.2245 16.8089C29.0049 16.454 28.7714 16.071 28.5239 15.6597C28.2759 15.2489 28.0307 14.8489 27.7883 14.4598C27.5459 14.0708 27.3376 13.73 27.1633 13.4374C26.9883 13.1447 26.8671 12.9475 26.7997 12.8459C26.6326 12.5938 26.5337 12.3027 26.5127 12.0009C26.5295 11.7113 26.6227 11.4313 26.7828 11.1895C26.8504 11.0768 26.9743 10.8768 27.1546 10.5895C27.3348 10.3022 27.5461 9.96142 27.7883 9.56709C28.0305 9.17276 28.2757 8.76997 28.5239 8.35874C28.7721 7.94751 29.0056 7.5616 29.2245 7.20107C29.4446 6.84092 29.6897 6.44095 29.9599 6.00118H34.2858L30.9397 11.4599C30.8361 11.6219 30.7778 11.8087 30.7707 12.0009C30.7818 12.2027 30.8523 12.3967 30.9732 12.5586H30.9738Z" fill="white"/>
<path d="M48.0994 6.01032H45.9891L41.4029 11.2944H40.7726V6.01032H39V17.9966H40.7726V12.5774H40.8323L45.8206 18.0135L48.2348 17.9963L42.5117 12.0538L48.0994 6.01032Z" fill="white"/>
<path d="M52.2439 16.7554C52.1851 16.7619 52.1259 16.7648 52.0667 16.7641C51.9396 16.7679 51.8131 16.7448 51.6955 16.6963C51.5932 16.6508 51.5056 16.5778 51.4423 16.4853C51.369 16.376 51.3201 16.2522 51.2988 16.1223C51.2684 15.9497 51.2543 15.7746 51.2567 15.5993V5.2506L49.5347 5.50384V16.359C49.5275 16.6435 49.5733 16.9269 49.6697 17.1946C49.7507 17.4122 49.8841 17.6065 50.058 17.7602C50.2313 17.9087 50.4363 18.0156 50.6573 18.0725C50.9026 18.1361 51.1551 18.1673 51.4085 18.1654C51.5439 18.1654 51.6731 18.1597 51.7969 18.1482C51.9207 18.1367 52.0417 18.1201 52.1598 18.0978C52.278 18.0756 52.3765 18.0528 52.4553 18.0303L52.6241 16.6963C52.5565 16.708 52.489 16.7192 52.4215 16.7301C52.354 16.741 52.2948 16.7494 52.2439 16.7554Z" fill="white"/>
<path d="M61.6557 16.933C61.5323 16.9443 61.408 16.9257 61.2934 16.8786C61.1787 16.8315 61.0771 16.7574 60.9973 16.6626C60.8407 16.3922 60.7756 16.0785 60.8116 15.7681L60.8454 12.2904C60.8491 11.9258 60.8037 11.5622 60.7103 11.2097C60.6282 10.9007 60.491 10.6091 60.3052 10.349C60.1174 10.0945 59.8788 9.88182 59.6046 9.72438C59.2861 9.54327 58.9415 9.4123 58.5832 9.33609C58.145 9.24143 57.6977 9.1961 57.2495 9.201C56.894 9.20085 56.5389 9.2234 56.1862 9.26853C55.8529 9.31042 55.5227 9.37522 55.1983 9.46241C54.8975 9.54419 54.6016 9.64293 54.312 9.75814L54.1094 11.1931C54.3908 11.0914 54.6581 11.007 54.9114 10.9399C55.1646 10.8727 55.4093 10.8164 55.6457 10.7711C55.8772 10.7267 56.1112 10.6957 56.3463 10.6782C56.5768 10.6613 56.8049 10.6529 57.0303 10.6529C57.3745 10.6455 57.718 10.6853 58.0514 10.7711C58.2947 10.8319 58.5185 10.954 58.7014 11.1256C58.8642 11.2924 58.9806 11.4989 59.039 11.7246C59.1111 12.003 59.1453 12.2899 59.1406 12.5774L59.1386 13.0012L57.1651 13.1346C56.4902 13.1534 55.8252 13.3024 55.2067 13.5735C54.7439 13.7759 54.3444 14.0996 54.0504 14.5104C53.8007 14.8759 53.6682 15.3087 53.6705 15.7513C53.6673 16.1664 53.769 16.5757 53.9659 16.9412C54.1724 17.3168 54.4831 17.6248 54.8607 17.8277C55.3212 18.0673 55.8359 18.1837 56.3547 18.1654C56.8409 18.1766 57.3248 18.0964 57.7813 17.9288C58.176 17.7742 58.5371 17.5449 58.8449 17.2535C58.9616 17.1413 59.0724 17.0232 59.1769 16.8995C59.2097 17.0744 59.2715 17.2425 59.3597 17.397C59.5102 17.6554 59.7416 17.8571 60.0182 17.971C60.3239 18.0937 60.651 18.1539 60.9804 18.148C61.0817 18.148 61.1802 18.1454 61.2759 18.1395C61.3698 18.1341 61.463 18.12 61.5544 18.0976C61.6444 18.0748 61.7258 18.0551 61.7992 18.0385C61.8653 18.0235 61.9301 18.0037 61.9934 17.9794L62.179 16.848C62.0859 16.8802 61.9897 16.9029 61.892 16.9158C61.8137 16.9264 61.7348 16.9321 61.6557 16.933ZM58.8449 16.1733C58.6618 16.3179 58.4637 16.4423 58.254 16.5444C58.0451 16.6462 57.8237 16.7201 57.5955 16.7642C57.3592 16.8097 57.1191 16.8323 56.8784 16.8317C56.6032 16.8396 56.3295 16.7878 56.0762 16.6798C55.8702 16.5902 55.6965 16.4399 55.5782 16.249C55.4612 16.0466 55.4028 15.8158 55.4093 15.5822C55.3931 15.3008 55.4702 15.022 55.6288 14.789C55.8125 14.5744 56.0616 14.4261 56.3378 14.3669C56.7691 14.2653 57.2118 14.2199 57.6547 14.2319H59.133L59.1253 15.9074C59.0397 16.004 58.9459 16.0929 58.8449 16.1733Z" fill="white"/>
<path d="M69.1173 14.1137C68.9445 13.9304 68.7454 13.7738 68.5264 13.6492C68.2998 13.5196 68.0626 13.4094 67.8174 13.3199C67.6373 13.2637 67.4601 13.2046 67.2856 13.1427C67.1112 13.0808 66.9367 13.0245 66.7623 12.9739C66.5874 12.9232 66.4186 12.8697 66.2558 12.8135C66.1027 12.7615 65.9533 12.6993 65.8085 12.6275C65.6697 12.5537 65.537 12.469 65.4117 12.3743C65.2959 12.2871 65.1984 12.178 65.1247 12.0532C65.0502 11.9252 65.0122 11.7793 65.0147 11.6312C65.0103 11.4685 65.0514 11.3078 65.1334 11.1672C65.2215 11.029 65.3436 10.9156 65.4879 10.838C65.6646 10.7409 65.8554 10.6725 66.0535 10.6351C66.301 10.5877 66.5527 10.5652 66.8047 10.5679C66.9282 10.5679 67.0636 10.5738 67.2097 10.5848C67.3557 10.5958 67.5163 10.6157 67.6911 10.6439C67.8658 10.672 68.0394 10.7086 68.2144 10.7533C68.3894 10.7981 68.5661 10.8492 68.7462 10.9052C68.9129 10.9568 69.0763 11.0188 69.2352 11.0909L69.3539 9.72378C69.1399 9.63374 68.9289 9.55488 68.7208 9.48717C68.5129 9.41999 68.3016 9.36361 68.0878 9.31832C67.8789 9.27406 67.6675 9.24306 67.4547 9.22548C67.2459 9.2086 67.0411 9.20017 66.8382 9.20017C66.3719 9.19545 65.9068 9.24931 65.4539 9.36053C65.0667 9.45471 64.6985 9.61461 64.3653 9.83324C64.063 10.033 63.816 10.3059 63.6475 10.6267C63.4713 10.9802 63.3844 11.3714 63.3943 11.7662C63.3892 12.0506 63.4349 12.3336 63.5294 12.6019C63.6097 12.8268 63.7298 13.0356 63.8839 13.2181C64.034 13.3903 64.2073 13.5408 64.3988 13.6655C64.5982 13.7963 64.8103 13.9066 65.0319 13.9946C65.1553 14.0397 65.2848 14.0846 65.4204 14.1294C65.5555 14.1747 65.6875 14.2169 65.8172 14.2561C65.9469 14.2952 66.0726 14.3351 66.197 14.3742C66.3214 14.4134 66.4415 14.4533 66.5597 14.4924C66.6779 14.5315 66.7932 14.5686 66.9058 14.6024C67.0569 14.6558 67.2037 14.7206 67.345 14.7963C67.4688 14.862 67.5849 14.9414 67.6911 15.0329C67.7844 15.1147 67.8592 15.2154 67.9105 15.3284C67.9619 15.4453 67.9877 15.5718 67.9862 15.6995C67.9923 15.8243 67.9704 15.949 67.9222 16.0643C67.874 16.1797 67.8008 16.2828 67.7077 16.3663C67.4987 16.5411 67.249 16.6602 66.9817 16.7127C66.6686 16.7817 66.3488 16.8156 66.0282 16.8137C65.8277 16.8124 65.6274 16.7984 65.4286 16.7718C65.2093 16.7436 64.9787 16.7042 64.7367 16.6536C64.4947 16.6029 64.2471 16.541 63.9939 16.4679C63.7404 16.3947 63.4844 16.3131 63.2257 16.2231L63.293 17.6581C63.5854 17.7595 63.8527 17.8411 64.0949 17.9028C64.3371 17.9646 64.5679 18.0181 64.7873 18.0635C64.9987 18.1074 65.2131 18.1356 65.4286 18.1479C65.6368 18.1596 65.8478 18.1653 66.0617 18.1651C66.5326 18.1675 67.0025 18.1193 67.4631 18.0213C67.8686 17.9391 68.257 17.7878 68.6111 17.5739C68.9304 17.379 69.1947 17.1061 69.3793 16.7808C69.5724 16.4235 69.6683 16.0217 69.6573 15.6156C69.6644 15.3195 69.6158 15.0247 69.5141 14.7465C69.4233 14.5122 69.2886 14.2975 69.1173 14.1137Z" fill="white"/>
<path d="M77.0347 14.1137C76.8619 13.9304 76.6627 13.7739 76.4438 13.6492C76.2172 13.5195 75.9799 13.4094 75.7345 13.3199C75.5544 13.2637 75.3772 13.2046 75.2028 13.1427C75.0283 13.0808 74.8538 13.0245 74.6794 12.9739C74.5049 12.9232 74.3361 12.8697 74.1729 12.8135C74.0199 12.7614 73.8704 12.6993 73.7256 12.6275C73.5868 12.5537 73.4541 12.4691 73.3288 12.3743C73.2131 12.2871 73.1157 12.178 73.0422 12.0532C72.9676 11.9253 72.9295 11.7793 72.9321 11.6312C72.9276 11.4685 72.9686 11.3078 73.0505 11.1672C73.1385 11.0288 73.2606 10.9155 73.4051 10.838C73.5817 10.7409 73.7726 10.6725 73.9706 10.6351C74.2181 10.5878 74.4697 10.5652 74.7216 10.5679C74.8454 10.5679 74.9805 10.5738 75.1271 10.5848C75.2737 10.5958 75.4335 10.6157 75.6082 10.6439C75.7829 10.672 75.9568 10.7086 76.1313 10.7533C76.3057 10.7981 76.483 10.8492 76.6633 10.9052C76.8302 10.9568 76.9936 11.0188 77.1526 11.091L77.271 9.72379C77.057 9.63375 76.846 9.55489 76.638 9.48717C76.43 9.41994 76.2187 9.36357 76.0049 9.31832C75.796 9.27406 75.5846 9.24306 75.3718 9.22548C75.1632 9.2086 74.9578 9.20017 74.7556 9.20017C74.2893 9.1954 73.8242 9.24927 73.3713 9.36054C72.984 9.45462 72.6156 9.61453 72.2824 9.83325C71.9801 10.033 71.7334 10.3059 71.565 10.6267C71.3885 10.9801 71.3015 11.3714 71.3117 11.7662C71.3066 12.0506 71.3524 12.3337 71.447 12.6019C71.5271 12.827 71.6472 13.0358 71.8016 13.2181C71.9516 13.3904 72.1249 13.541 72.3165 13.6655C72.5158 13.7963 72.7279 13.9066 72.9496 13.9947C73.073 14.0397 73.2024 14.0846 73.3378 14.1294C73.4729 14.1747 73.6049 14.217 73.7346 14.2561C73.8643 14.2952 73.9903 14.3351 74.1141 14.3743C74.2379 14.4134 74.3589 14.4533 74.4771 14.4924C74.5953 14.5315 74.7106 14.5687 74.8234 14.6024C74.9744 14.6558 75.121 14.7207 75.2621 14.7963C75.3861 14.8619 75.5023 14.9413 75.6085 15.0329C75.7018 15.1146 75.7766 15.2154 75.8277 15.3284C75.8794 15.4452 75.9054 15.5717 75.9039 15.6995C75.91 15.8244 75.8881 15.949 75.8398 16.0644C75.7916 16.1797 75.7182 16.2829 75.6251 16.3663C75.4162 16.5411 75.1664 16.6602 74.8991 16.7127C74.586 16.7817 74.2662 16.8156 73.9456 16.8137C73.7452 16.8124 73.5449 16.7984 73.3463 16.7718C73.1268 16.7436 72.8961 16.7042 72.6541 16.6536C72.4121 16.603 72.1645 16.541 71.911 16.4679C71.658 16.3947 71.4021 16.3131 71.1432 16.2231L71.2107 17.6581C71.503 17.7595 71.7702 17.8411 72.0126 17.9029C72.2549 17.9646 72.4856 18.0181 72.7047 18.0635C72.9162 18.1074 73.1306 18.1356 73.3463 18.148C73.5543 18.1596 73.7653 18.1653 73.9793 18.1651C74.4501 18.1676 74.9198 18.1194 75.3803 18.0213C75.7858 17.9392 76.1741 17.7878 76.5283 17.574C76.8476 17.3791 77.1121 17.1061 77.2967 16.7808C77.4899 16.4235 77.5859 16.0217 77.5749 15.6156C77.582 15.3195 77.5334 15.0247 77.4314 14.7465C77.3408 14.5122 77.2061 14.2974 77.0347 14.1137Z" fill="white"/>
<path d="M81.0949 5.68105C80.9197 5.57399 80.7179 5.51843 80.5127 5.52069C80.3048 5.5191 80.1004 5.57456 79.9219 5.68105C79.7458 5.78409 79.598 5.92908 79.4916 6.1031C79.3843 6.27815 79.3286 6.47997 79.331 6.68528C79.3293 6.89324 79.3849 7.09765 79.4916 7.27615C79.5948 7.45268 79.7434 7.5984 79.9219 7.6982C80.1022 7.79943 80.3059 7.85182 80.5127 7.85015C80.7168 7.85246 80.9179 7.79998 81.0949 7.6982C81.2685 7.59759 81.4115 7.45171 81.5087 7.27615C81.61 7.09578 81.6624 6.89211 81.6607 6.68528C81.663 6.48113 81.6106 6.28007 81.5087 6.1031C81.4084 5.92993 81.266 5.7848 81.0949 5.68105Z" fill="white"/>
<path d="M79.6177 17.9963H81.3397V9.21764L79.6177 9.47088V17.9963Z" fill="white"/>
<path d="M89.308 14.1137C89.1352 13.9304 88.9361 13.7738 88.7171 13.6492C88.4904 13.5195 88.2531 13.4094 88.0078 13.3199C87.8279 13.2637 87.6507 13.2046 87.4762 13.1427C87.3018 13.0808 87.1273 13.0245 86.9527 12.9739C86.7782 12.9232 86.6094 12.8697 86.4462 12.8135C86.2932 12.7614 86.1438 12.6993 85.9991 12.6275C85.8602 12.5538 85.7275 12.4691 85.6021 12.3743C85.4864 12.2871 85.389 12.178 85.3154 12.0532C85.2408 11.9253 85.2028 11.7793 85.2054 11.6312C85.2009 11.4685 85.2419 11.3078 85.3238 11.1672C85.4118 11.0289 85.5339 10.9155 85.6783 10.838C85.855 10.741 86.0459 10.6725 86.2439 10.6351C86.4914 10.5878 86.7431 10.5652 86.9951 10.5679C87.1186 10.5679 87.254 10.5738 87.4003 10.5848C87.5466 10.5958 87.7067 10.6157 87.8815 10.6439C88.0562 10.672 88.2301 10.7086 88.4045 10.7533C88.5789 10.7981 88.7562 10.8492 88.9366 10.9052C89.1034 10.9568 89.2669 11.0188 89.4259 11.091L89.5443 9.72379C89.3303 9.63375 89.1193 9.55489 88.9113 9.48717C88.7033 9.41993 88.492 9.36355 88.2782 9.31832C88.0693 9.27406 87.8579 9.24306 87.6451 9.22548C87.4367 9.2086 87.2313 9.20017 87.0289 9.20017C86.5626 9.1954 86.0974 9.24927 85.6445 9.36054C85.2572 9.45461 84.8889 9.61452 84.5557 9.83325C84.2534 10.033 84.0066 10.3059 83.8382 10.6267C83.6617 10.9801 83.5748 11.3714 83.585 11.7662C83.5798 12.0506 83.6256 12.3337 83.7203 12.6019C83.8004 12.827 83.9205 13.0358 84.0748 13.2181C84.2249 13.3904 84.3982 13.5409 84.5898 13.6655C84.7891 13.7963 85.0012 13.9066 85.2228 13.9947C85.3463 14.0397 85.4757 14.0846 85.6111 14.1294C85.7465 14.1743 85.8787 14.2165 86.0078 14.2561C86.1368 14.2958 86.2634 14.3352 86.3874 14.3743C86.5114 14.4133 86.6324 14.4526 86.7504 14.4924C86.8685 14.532 86.984 14.5687 87.0967 14.6024C87.2477 14.6558 87.3945 14.7207 87.5357 14.7963C87.6595 14.862 87.7756 14.9413 87.8817 15.0329C87.9751 15.1146 88.0499 15.2153 88.1009 15.3284C88.1527 15.4452 88.1787 15.5717 88.1772 15.6995C88.1832 15.8243 88.1613 15.949 88.1131 16.0643C88.0649 16.1797 87.9916 16.2829 87.8986 16.3663C87.6895 16.541 87.4398 16.6602 87.1724 16.7127C86.8593 16.7817 86.5394 16.8156 86.2188 16.8137C86.0184 16.8124 85.8182 16.7984 85.6195 16.7718C85.4001 16.7436 85.1694 16.7042 84.9274 16.6536C84.6854 16.603 84.4377 16.541 84.1843 16.4679C83.9314 16.3947 83.6755 16.3131 83.4164 16.2231L83.4839 17.6581C83.7764 17.7595 84.0437 17.8411 84.2859 17.9029C84.528 17.9646 84.7587 18.0181 84.978 18.0635C85.1895 18.1074 85.4039 18.1356 85.6195 18.148C85.8276 18.1596 86.0386 18.1653 86.2526 18.1651C86.7234 18.1676 87.1931 18.1194 87.6535 18.0213C88.0591 17.9391 88.4475 17.7878 88.8018 17.574C89.121 17.379 89.3853 17.1061 89.57 16.7808C89.7632 16.4235 89.8591 16.0217 89.8482 15.6156C89.8553 15.3195 89.8066 15.0247 89.7047 14.7465C89.6141 14.5122 89.4793 14.2974 89.308 14.1137Z" fill="white"/>
<path d="M97.092 17.9963H99.3205L95.2254 13.3819L99.2361 9.38646H97.1258L94.237 12.5603H93.6143V5.25037L91.8923 5.50357V17.9963H93.6143V13.8602H93.6424L97.092 17.9963Z" fill="white"/>
</svg>

<svg xmlns="http://www.w3.org/2000/svg" viewBox="0 0 100 24"><path fill="#fff" d="M0 18V6.001h3.937v12H0ZM9.294 7.911l2.264 10.09H7.25L4.546 6h2.416a2.276 2.276 0 0 1 1.513.55c.42.346.71.826.819 1.36Zm2.856 10.09V6h3.937v12H12.15Zm6.91-7.437a2.382 2.382 0 0 1-2.4-2.4 2.303 2.303 0 0 1 .322-1.2 2.412 2.412 0 0 1 3.278-.861c.356.21.653.506.862.862.215.363.326.778.321 1.2a2.4 2.4 0 0 1-1.183 2.079 2.303 2.303 0 0 1-1.2.32ZM22.053 18V6.001h3.937v12h-3.937Zm8.922-5.441c.01.011.095.15.253.414s.364.602.617 1.014a320.187 320.187 0 0 1 1.597 2.62c.247.41.529.875.845 1.393H29.96c-.27-.439-.516-.836-.736-1.191-.22-.355-.453-.738-.7-1.15-.248-.41-.493-.81-.736-1.2-.242-.388-.45-.729-.625-1.022a18.04 18.04 0 0 0-.363-.591 1.75 1.75 0 0 1-.287-.845c.016-.29.11-.57.27-.811.067-.113.191-.313.372-.6a182.106 182.106 0 0 0 1.37-2.23c.247-.412.48-.798.7-1.159l.735-1.2h4.326L30.94 11.46a1.078 1.078 0 0 0-.17.54c.012.203.082.397.203.559ZM48.1 6.01h-2.11l-4.587 5.284h-.63V6.01H39v11.987h1.773v-5.42h.06l4.988 5.437 2.414-.018-5.723-5.942 5.587-6.044ZM52.244 16.755c-.059.007-.118.01-.177.01a.903.903 0 0 1-.371-.069.604.604 0 0 1-.254-.21.919.919 0 0 1-.143-.364 2.795 2.795 0 0 1-.042-.523V5.251l-1.722.253v10.855c-.007.284.038.568.135.836.08.217.214.412.388.565.173.149.378.256.6.313.245.063.497.094.75.092a4.198 4.198 0 0 0 .752-.067 3.35 3.35 0 0 0 .295-.068l.17-1.334a18.201 18.201 0 0 1-.381.06ZM61.656 16.933a.769.769 0 0 1-.659-.27 1.451 1.451 0 0 1-.185-.895l.033-3.478a4.06 4.06 0 0 0-.135-1.08c-.082-.31-.219-.6-.405-.861a2.284 2.284 0 0 0-.7-.625 3.568 3.568 0 0 0-1.022-.388 6.005 6.005 0 0 0-1.334-.135c-.355 0-.71.022-1.063.068a7.327 7.327 0 0 0-.988.193c-.3.082-.596.18-.886.296l-.203 1.435a9.604 9.604 0 0 1 1.537-.422 6.14 6.14 0 0 1 .7-.093c.23-.017.459-.025.684-.025.344-.008.688.032 1.021.118.244.06.468.183.65.355.163.166.28.373.338.599.072.278.106.565.102.852l-.002.424-1.974.134a5.242 5.242 0 0 0-1.958.438 2.803 2.803 0 0 0-1.157.937 2.18 2.18 0 0 0-.38 1.241 2.47 2.47 0 0 0 .296 1.19c.206.376.517.684.895.887.46.24.975.356 1.494.337a3.88 3.88 0 0 0 1.426-.236 3.295 3.295 0 0 0 1.064-.675c.117-.113.227-.23.332-.355.033.175.095.343.183.498.15.258.382.46.658.574.306.123.633.183.962.177.102 0 .2-.003.296-.008.094-.006.187-.02.278-.042l.245-.06c.066-.015.131-.034.194-.059l.186-1.131c-.093.032-.19.055-.287.068-.078.01-.157.016-.236.017Zm-2.811-.76a3.246 3.246 0 0 1-.591.371c-.209.102-.43.176-.658.22a3.743 3.743 0 0 1-.718.068 1.906 1.906 0 0 1-.802-.152c-.206-.09-.38-.24-.498-.431a1.262 1.262 0 0 1-.169-.667c-.016-.281.061-.56.22-.793.184-.215.433-.363.709-.422a5.137 5.137 0 0 1 1.317-.135h1.478l-.008 1.675c-.085.097-.18.186-.28.266ZM69.117 14.114a2.535 2.535 0 0 0-.59-.465 4.617 4.617 0 0 0-.71-.33c-.18-.055-.357-.114-.531-.176a9.373 9.373 0 0 0-.524-.17c-.175-.05-.343-.103-.506-.16a3.648 3.648 0 0 1-.448-.186 2.973 2.973 0 0 1-.396-.253 1.106 1.106 0 0 1-.287-.32.812.812 0 0 1-.11-.423.874.874 0 0 1 .118-.464.96.96 0 0 1 .355-.329 1.91 1.91 0 0 1 .566-.203c.247-.047.499-.07.75-.067a5.443 5.443 0 0 1 .887.076c.175.028.348.065.523.11.175.044.352.095.532.151.167.052.33.114.49.186l.118-1.367a8.079 8.079 0 0 0-.633-.237 6.315 6.315 0 0 0-.633-.169 5.067 5.067 0 0 0-.633-.093 7.637 7.637 0 0 0-.617-.025 5.568 5.568 0 0 0-1.384.16 3.486 3.486 0 0 0-1.089.473c-.302.2-.549.473-.717.794a2.418 2.418 0 0 0-.254 1.14c-.005.284.04.567.135.835.08.225.2.434.355.616.15.172.323.323.515.447.2.131.411.242.633.33.123.045.253.09.388.134.135.046.267.088.397.127l.38.118.363.118c.118.04.233.077.346.11.15.054.298.119.439.194.124.066.24.145.346.237a.873.873 0 0 1 .295.667.84.84 0 0 1-.278.666 1.617 1.617 0 0 1-.726.347 4.312 4.312 0 0 1-.954.1c-.2 0-.4-.015-.6-.041a8.992 8.992 0 0 1-.691-.118c-.242-.051-.49-.113-.743-.186a15.02 15.02 0 0 1-.768-.245l.067 1.435c.292.101.56.183.802.245s.473.115.692.16c.212.044.426.073.642.085.208.012.419.017.633.017.47.003.94-.046 1.401-.144a3.606 3.606 0 0 0 1.148-.447c.32-.195.584-.468.768-.793.193-.357.29-.76.278-1.165a2.366 2.366 0 0 0-.143-.87 1.975 1.975 0 0 0-.397-.632ZM77.035 14.114a2.54 2.54 0 0 0-.591-.465 4.602 4.602 0 0 0-.71-.33c-.18-.055-.357-.114-.531-.176a9.403 9.403 0 0 0-.524-.17c-.174-.05-.343-.103-.506-.16a3.67 3.67 0 0 1-.447-.186 2.963 2.963 0 0 1-.397-.253 1.103 1.103 0 0 1-.287-.32.81.81 0 0 1-.11-.423.874.874 0 0 1 .118-.464.955.955 0 0 1 .355-.329 1.91 1.91 0 0 1 .566-.203c.247-.047.499-.07.75-.067a5.46 5.46 0 0 1 .887.076c.175.028.349.065.523.11.175.044.352.095.532.151.167.052.33.114.49.186l.118-1.367a8.096 8.096 0 0 0-.633-.237 6.3 6.3 0 0 0-.633-.169 5.067 5.067 0 0 0-.633-.093 7.639 7.639 0 0 0-.616-.025 5.564 5.564 0 0 0-1.385.16 3.482 3.482 0 0 0-1.089.473c-.302.2-.549.473-.717.794a2.411 2.411 0 0 0-.253 1.14c-.005.284.04.567.135.835.08.225.2.434.355.616.15.172.323.323.514.447.2.131.412.242.634.33a13.647 13.647 0 0 0 .785.261l.38.118.362.118c.118.04.234.077.346.11.151.054.298.119.44.194.123.066.24.145.346.237a.869.869 0 0 1 .295.667.839.839 0 0 1-.279.666 1.617 1.617 0 0 1-.726.347 4.312 4.312 0 0 1-.953.1c-.2 0-.401-.015-.6-.041a8.982 8.982 0 0 1-.692-.118c-.242-.051-.49-.113-.743-.186a15.231 15.231 0 0 1-.768-.245l.068 1.435c.292.101.56.183.802.245s.473.115.692.16c.211.044.426.073.641.085.208.012.42.017.633.017.471.003.94-.046 1.401-.144a3.607 3.607 0 0 0 1.148-.447c.32-.195.584-.468.769-.793.193-.357.289-.76.278-1.165a2.36 2.36 0 0 0-.144-.87 1.968 1.968 0 0 0-.396-.632ZM81.095 5.681a1.094 1.094 0 0 0-.582-.16 1.136 1.136 0 0 0-.591.16 1.236 1.236 0 0 0-.43.422 1.09 1.09 0 0 0-.161.582c-.002.208.054.413.16.591.104.177.252.322.43.422.181.101.385.154.592.152.204.002.405-.05.582-.152.174-.1.317-.246.414-.422.101-.18.153-.384.152-.59a1.14 1.14 0 0 0-.152-.583 1.193 1.193 0 0 0-.414-.422ZM79.618 17.996h1.722V9.218l-1.722.253v8.525ZM89.308 14.114a2.535 2.535 0 0 0-.59-.465 4.61 4.61 0 0 0-.71-.33c-.18-.055-.357-.114-.532-.176a9.326 9.326 0 0 0-.523-.17c-.175-.05-.344-.103-.507-.16a3.66 3.66 0 0 1-.447-.186 2.955 2.955 0 0 1-.397-.253 1.105 1.105 0 0 1-.287-.32.81.81 0 0 1-.11-.423.874.874 0 0 1 .119-.464.956.956 0 0 1 .354-.329c.177-.097.368-.165.566-.203.247-.047.5-.07.751-.067a5.452 5.452 0 0 1 .886.076c.175.028.35.065.523.11.175.044.352.095.533.151.166.052.33.114.489.186l.118-1.367a8.096 8.096 0 0 0-.633-.237 6.292 6.292 0 0 0-.633-.169 5.067 5.067 0 0 0-.633-.093 7.631 7.631 0 0 0-.616-.025 5.564 5.564 0 0 0-1.385.16 3.481 3.481 0 0 0-1.088.473c-.303.2-.55.473-.718.794a2.41 2.41 0 0 0-.253 1.14c-.005.284.04.567.135.835.08.225.2.434.355.616.15.172.323.323.515.447.2.131.411.242.633.33a13.765 13.765 0 0 0 .785.261 57.665 57.665 0 0 1 .742.236c.118.04.234.077.347.11.15.054.297.119.439.194.123.066.24.145.346.237a.865.865 0 0 1 .295.667.841.841 0 0 1-.278.666 1.62 1.62 0 0 1-.727.347 4.313 4.313 0 0 1-.953.1 4.75 4.75 0 0 1-.6-.041 8.988 8.988 0 0 1-.692-.118c-.242-.051-.49-.113-.743-.186a15.333 15.333 0 0 1-.768-.245l.068 1.435c.292.101.56.183.802.245s.473.115.692.16a4.4 4.4 0 0 0 .642.085c.208.012.419.017.633.017.47.003.94-.046 1.4-.144a3.61 3.61 0 0 0 1.149-.447c.319-.195.583-.468.768-.793.193-.357.29-.76.278-1.165a2.362 2.362 0 0 0-.143-.87 1.97 1.97 0 0 0-.397-.632ZM97.092 17.996h2.228l-4.095-4.614 4.011-3.996h-2.11l-2.889 3.174h-.623V5.25l-1.722.254v12.492h1.722V13.86h.028l3.45 4.136Z"/></svg>
